X:7
T:Unknown Bouree
M:2/4
L:1/8
R:bourree
Z:robin.beech@mcgill.ca
K:G
Ez/F/ GF- | FA BA | Ez/F/ GF- | F GFD | Ez/F/ GF- | FA BA |1
Ez/F/ GA- | A2D2 :|2 Ez/F/ GA- | AFGA |:B2Bc- | cB AG |
Fz/G/ FG- | G2 GF | EG FA | Bc/B/ GG |1 F2 G A- | AF  GA :|2  F2 FE- | E4 |]
